X:1
T:The Tree Craws
M:4/4
L:1/8
K:C
 G| c4 G3- F| E3/2 F/2 G3/2 E/2 C4| D3/2 E/2 F3/2 D/2 B,4| E3/2 F/2 G3/2 F/2 E2 G2|\
 A2 B2
M:4/4
| c4 G3- F| E3/2 F/2 G3/2 E/2 C2 DE| F2 D2 G2 B,2| C4 C3||
